32x32/places/folder-indigo-meocloud.svg

<svg xmlns="http://www.w3.org/2000/svg" width="32" height="32" version="1"><rect style="opacity:.2" width="28" height="18" x="2" y="11" rx="1.4" ry="1.4"/><path style="fill:#3f51b5" d="M2 22.6c0 .776.624 1.4 1.4 1.4h25.2c.776 0 1.4-.624 1.4-1.4V7.4c0-.776-.624-1.4-1.4-1.4H16c-2.1 0-2.8-3-4.9-3H3.4C2.624 3 2 3.624 2 4.4"/><rect style="opacity:.2" width="28" height="18" x="2" y="9" rx="1.4" ry="1.4"/><rect style="fill:#f4f4f7" width="24" height="11" x="4" y="8" rx="1.4" ry="1.4"/><rect style="fill:#8265ff" width="28" height="18" x="2" y="10" rx="1.4" ry="1.4"/><path style="opacity:.1;fill:#f4f4f7" d="M3.4 3C2.625 3 2 3.625 2 4.4v1C2 4.625 2.625 4 3.4 4h7.7c2.1 0 2.8 3 4.9 3h12.6c.775 0 1.4.625 1.4 1.4v-1c0-.775-.625-1.4-1.4-1.4H16c-2.1 0-2.8-3-4.9-3z"/><path style="fill:#202543" d="M17.2 15a3.196 3.196 0 0 0-2.848 1.748 1.998 1.998 0 0 0-2.731 1.584A2.402 2.402 0 0 0 10 20.6a2.4 2.4 0 0 0 2.4 2.4h7.2a2.398 2.398 0 0 0 .795-4.662c.003-.046.004-.093.005-.139A3.2 3.2 0 0 0 17.2 15zm-.001 2a1.17 1.17 0 0 1 1.199 1.195v.006a2.001 2.001 0 0 0 1.334 2.024.386.386 0 0 1 .268.375c0 .244-.156.4-.4.4h-7.2c-.244 0-.399-.155-.4-.398V20.6a.384.384 0 0 1 .27-.375 2.002 2.002 0 0 0 1.332-1.623 2 2 0 0 0 2.533-.946A1.186 1.186 0 0 1 17.199 17z"/></svg>

<svg xmlns="http://www.w3.org/2000/svg" width="32" height="32" version="1">
 <rect style="opacity:0.2" width="28" height="18" x="2" y="11" rx="1.4" ry="1.4"/>
 <path style="fill:#3f51b5" d="M 2,22.6 C 2,23.376 2.6244,24 3.4,24 H 28.6 C 29.376,24 30,23.376 30,22.6 V 7.4 C 30,6.6244 29.376,6 28.6,6 H 16 C 13.9,6 13.2,3 11.1,3 H 3.4 C 2.6244,3 2,3.6244 2,4.4"/>
 <rect style="opacity:0.2" width="28" height="18" x="2" y="9" rx="1.4" ry="1.4"/>
 <rect style="fill:#f4f4f7" width="24" height="11" x="4" y="8" rx="1.4" ry="1.4"/>
 <rect style="fill:#8265ff" width="28" height="18" x="2" y="10" rx="1.4" ry="1.4"/>
 <path style="opacity:0.1;fill:#f4f4f7" d="M 3.4004,3 C 2.6248,3 2,3.6248 2,4.4004 V 5.4004 C 2,4.6248 2.6248,4 3.4004,4 H 11.1 C 13.2,4 13.9,7 16,7 H 28.6 C 29.375,7 30,7.6248 30,8.4004 V 7.4004 C 30,6.6248 29.375,6 28.6,6 H 16 C 13.9,6 13.2,3 11.1,3 Z"/>
 <path style="fill:#202543" d="m 17.2,15 c -1.202,0 -2.303,0.676 -2.848,1.748 C 14.113,16.651 13.857,16.6 13.6,16.6 c -1.001,0 -1.845,0.741 -1.979,1.732 -0.968,0.333 -1.62,1.244 -1.621,2.268 0,1.325 1.075,2.4 2.4,2.4 h 7.2 C 20.925,23 22,21.925 22,20.6 21.999,19.581 21.356,18.675 20.395,18.338 20.398,18.292 20.399,18.245 20.4,18.199 20.4,16.432 18.967,15 17.2,15 Z m -10e-4,2 c 0.685,0 1.197,0.511 1.199,1.195 v 0.006 c -0.061,0.898 0.485,1.726 1.334,2.024 0.167,0.058 0.267,0.199 0.268,0.375 0,0.244 -0.156,0.4 -0.4,0.4 H 12.4 C 12.156,21 12.001,20.845 12,20.602 V 20.6 c 10e-4,-0.178 0.102,-0.318 0.27,-0.375 0.715,-0.246 1.23,-0.874 1.332,-1.623 0.962,0.39 2.062,-0.021 2.533,-0.946 C 16.341,17.25 16.747,17 17.199,17 Z"/>
</svg>
